X:1
T:Title
%%score { 1 | ( 2 3 ) }
L:1/8
M:4/4
K:G
V:1 treble nm="Grand Piano"
V:2 treble 
V:3 treble 
V:1
 z4 z2[Q:1/4=106] D2 | G2 G2 G2 B2 | de d2 B2 G2 | d3 d edBG | B4 A2 D2 | G2 G2 GG B2 | %6
 de d2 B2 G2 | d3 d edBG |[M:3/4] [FA]4 G2 |[M:1/4] D2 |[M:4/4] G3 D GDGA |[M:3/4] B4 G2 | %12
[M:1/4] D2 |[M:4/4] B3 A BABc | d4 B2 dd |[M:3/4] [Ge][Ge] [Ge]2 [Ge]2 |[M:1/4] [EGc][Ge] | %17
[M:4/4] dd d2 d2 B2 | d3 d edBG |[M:3/4] [FA]4 G2 |] %20
V:2
 z4 z2 [G,B,]2 | [G,B,D]2 [G,B,D]2 [G,B,D]2 [G,DG]2 | [G,B,G][G,CG] [G,B,G]2 [G,DG]2 [G,B,]2 | %3
 [G,B,G]3 [G,B,G] [G,CG][G,B,G][G,DG][K:bass][G,B,D] | [D,G,D]4 [D,F,D]2 [D,C]2 | %5
 [G,B,D]2[K:treble] [G,B,D]2 DD [G,DG]2 | [G,G]-[G,CG] [G,B,G]2 [G,DG]2 [G,B,]2 | %7
 [G,B,G]3 [G,B,G] [G,CG][G,B,G][G,DG][K:bass][G,B,] |[M:3/4] [D,C]4 [G,B,]2 |[M:1/4] D,2 | %10
[M:4/4] G,3 D, G,D,G,A, |[M:3/4] B,4 G,2 |[M:1/4] D,2 | %13
[M:4/4][K:treble] [G,B,G]3 [F,A,F] [G,B,G][F,A,F][G,B,G][A,CA] | [B,DB]4 [G,B,G]2 [G,B,G][G,B,G] | %15
[M:3/4][K:bass] [C,C][C,C] [C,C]2 [C,C]2 |[M:1/4] C,[C,C] | %17
[M:4/4][K:treble] [G,B,G][G,B,G] [G,B,G]2 [G,B,G]2 [G,DG]2 | %18
 [G,B,G]3 [G,B,G] [G,CG][G,B,G][G,DG][K:bass][G,B,] |[M:3/4] [D,C]4 [G,B,]2 |] %20
V:3
 x8 | x8 | x8 | x7[K:bass] x | x8 | z4[K:treble] [G,B,]2 z2 | .B,2 z2 z4 | x7[K:bass] x | %8
[M:3/4] x6 |[M:1/4] x2 |[M:4/4] x8 |[M:3/4] x6 |[M:1/4] x2 |[M:4/4][K:treble] x8 | x8 | %15
[M:3/4][K:bass] x6 |[M:1/4] x2 |[M:4/4][K:treble] x8 | x7[K:bass] x |[M:3/4] x6 |] %20

